X: 28233
T: Mrs. Galvin's
R: jig
M: 6/8
K: Gmajor
GA|:BBA BGG|dGG BAG|~A3 ABA|GBd gdc|
BBA BGG|dGG BAG|~A3 ABA|1 AGF G2A:|2 AGF GBd||
|:~g3 fed|B2d def|~g3 fed|Bee e2f|~g3 fed|
B2d def|1 ~g3 gdB|AGF GBd:|2 ~g3 ~g3|~g3 gdc||

